X: 7
T:Kitty's Fancy
R:mazurka
Z:like id:hn-mazurka-5
M:3/4
K:D
DF|AF A2 dc|BG B2 ef|ge c2 Bc|BA F2 DF|
AF A2 dc|BG B2 ef|ge cA fe|d4:|
|:fg|af d2 Ad|cB B2 ef|ge c2 Bc|BA F2 fg|
af d2 Ad|cB B2 ef|ge cA fe|d4:|
